gama.ui.shared/icons_svg/light/views/open.interactive.console.svg

<svg height="25" viewBox="-632.5 -3407.468 25 25" width="25" xmlns="http://www.w3.org/2000/svg"><g fill="none"><path d="m-628.16-3406.968h16.32c2.1208 0 3.84 1.719 3.84 3.84v16.32c0 2.1207-1.7192 3.84-3.84 3.84h-16.32c-2.1208 0-3.84-1.7193-3.84-3.84v-16.32c0-2.121 1.7192-3.84 3.84-3.84z" fill="#fff"/><path d="m-628.16-3406.968h16.32c2.1208 0 3.84 1.719 3.84 3.84v16.32c0 2.1207-1.7192 3.84-3.84 3.84h-16.32c-2.1208 0-3.84-1.7193-3.84-3.84v-16.32c0-2.121 1.7192-3.84 3.84-3.84z" stroke="#000" stroke-linecap="round" stroke-linejoin="round" stroke-width=".25"/><path d="m-624.96775-3392.5364c.10399-.032.21599-.016.31195.04.8.472 1.70395.728 2.6559.728 2.87185 0 5.1997-2.3279 5.1997-5.1996 0-2.872-2.32785-5.2-5.1997-5.2-2.87186 0-5.1997 2.328-5.1997 5.2 0 .9438.25595 1.8557.7279 2.6557.056.096.072.208.04.312l-.58395 2.0479zm8.71155-6.1756c2.5039.76 4.2558 3.0798 4.2558 5.7436 0 1.032-.264 2.0319-.752 2.9119l.736 2.5758c.088.304-.192.584-.496.496l-2.57586-.736c-.87994.488-1.87994.752-2.91184.752-2.6639 0-4.98375-1.7519-5.7437-4.2558-.408-.12-.8-.288-1.16795-.496l-2.57585.736c-.304.088-.584-.192-.496-.496l.736-2.5758c-.488-.88-.752-1.8799-.752-2.9117 0-3.312 2.6879-6 5.9997-6 2.70386 0 4.99974 1.792 5.7437 4.256zm.2.92c.04.272.056.544.056.824 0 3.3116-2.6879 5.9995-5.9997 5.9995-.28 0-.552-.016-.82396-.056.78396 1.9359 2.67186 3.2558 4.82376 3.2558.94394 0 1.8559-.2559 2.65585-.7279.096-.056.20799-.072.31195-.04l2.0479.584-.58394-2.0479c-.032-.104-.016-.216.04-.312.47194-.8.72794-1.7039.72794-2.6559 0-2.1519-1.3199-4.0476-3.2558-4.8236z" fill="#5c76a2"/></g></svg>

<?xml version="1.0" encoding="UTF-8" standalone="no"?>
<!DOCTYPE svg PUBLIC "-//W3C//DTD SVG 1.1//EN" "http://www.w3.org/Graphics/SVG/1.1/DTD/svg11.dtd">
<svg version="1.1" xmlns="http://www.w3.org/2000/svg" xmlns:xl="http://www.w3.org/1999/xlink" xmlns:dc="http://purl.org/dc/elements/1.1/" viewBox="-632.5 -3407.468 25 25.000004" width="25" height="25.000004">
  <defs/>
  <g id="SOURCES" stroke-dasharray="none" fill="none" stroke="none" fill-opacity="1" stroke-opacity="1">
    <title>SOURCES</title>
    <g id="SOURCES_Calque_2">
      <title>Calque 2</title>
      <g id="Graphic_9723">
        <path d="M -628.16 -3406.968 L -611.84 -3406.968 C -609.7192 -3406.968 -608 -3405.249 -608 -3403.128 L -608 -3386.808 C -608 -3384.6873 -609.7192 -3382.968 -611.84 -3382.968 L -628.16 -3382.968 C -630.2808 -3382.968 -632 -3384.6873 -632 -3386.808 L -632 -3403.128 C -632 -3405.249 -630.2808 -3406.968 -628.16 -3406.968 Z" fill="white"/>
        <path d="M -628.16 -3406.968 L -611.84 -3406.968 C -609.7192 -3406.968 -608 -3405.249 -608 -3403.128 L -608 -3386.808 C -608 -3384.6873 -609.7192 -3382.968 -611.84 -3382.968 L -628.16 -3382.968 C -630.2808 -3382.968 -632 -3384.6873 -632 -3386.808 L -632 -3403.128 C -632 -3405.249 -630.2808 -3406.968 -628.16 -3406.968 Z" stroke="black" stroke-linecap="round" stroke-linejoin="round" stroke-width=".25"/>
      </g>
      <g id="Group_9745">
        <title>chat</title>
        <g id="Graphic_9746">
          <path d="M -624.96775 -3392.5364 C -624.86376 -3392.5684 -624.75176 -3392.5524 -624.6558 -3392.4964 C -623.8558 -3392.0244 -622.95185 -3391.7684 -621.9999 -3391.7684 C -619.12805 -3391.7684 -616.8002 -3394.0963 -616.8002 -3396.968 C -616.8002 -3399.84 -619.12805 -3402.168 -621.9999 -3402.168 C -624.87176 -3402.168 -627.1996 -3399.84 -627.1996 -3396.968 C -627.1996 -3396.0242 -626.94365 -3395.1123 -626.4717 -3394.3123 C -626.4157 -3394.2163 -626.3997 -3394.1043 -626.4317 -3394.0003 L -627.01565 -3391.9524 Z M -616.2562 -3398.712 C -613.7523 -3397.952 -612.0004 -3395.6322 -612.0004 -3392.9684 C -612.0004 -3391.9364 -612.2644 -3390.9365 -612.7524 -3390.0565 L -612.0164 -3387.4807 C -611.9284 -3387.1767 -612.2084 -3386.8967 -612.5124 -3386.9847 L -615.08826 -3387.7207 C -615.9682 -3387.2327 -616.9682 -3386.9687 -618.0001 -3386.9687 C -620.664 -3386.9687 -622.98385 -3388.7206 -623.7438 -3391.2245 C -624.1518 -3391.3445 -624.5438 -3391.5125 -624.91175 -3391.7205 L -627.4876 -3390.9845 C -627.7916 -3390.8965 -628.0716 -3391.1765 -627.9836 -3391.4805 L -627.2476 -3394.0563 C -627.7356 -3394.9363 -627.9996 -3395.9362 -627.9996 -3396.968 C -627.9996 -3400.28 -625.3117 -3402.968 -621.9999 -3402.968 C -619.29604 -3402.968 -617.00016 -3401.176 -616.2562 -3398.712 Z M -616.0562 -3397.792 C -616.0162 -3397.52 -616.0002 -3397.248 -616.0002 -3396.968 C -616.0002 -3393.6564 -618.6881 -3390.9685 -621.9999 -3390.9685 C -622.2799 -3390.9685 -622.5519 -3390.9845 -622.82386 -3391.0245 C -622.0399 -3389.0886 -620.152 -3387.7687 -618.0001 -3387.7687 C -617.05616 -3387.7687 -616.1442 -3388.0246 -615.34425 -3388.4966 C -615.24825 -3388.5526 -615.13626 -3388.5686 -615.0323 -3388.5366 L -612.9844 -3387.9526 L -613.56834 -3390.0005 C -613.60034 -3390.1045 -613.58434 -3390.2165 -613.52834 -3390.3125 C -613.0564 -3391.1125 -612.8004 -3392.0164 -612.8004 -3392.9684 C -612.8004 -3395.1203 -614.1203 -3397.016 -616.0562 -3397.792 Z" fill="#5c76a2"/>
        </g>
      </g>
    </g>
  </g>
</svg>
